dist/img/webservice.svg

<svg width="160" height="160" viewBox="0 0 160 160" fill="none" xmlns="http://www.w3.org/2000/svg">
<g clip-path="url(#clip0)">
<path d="M8 106.666H45.3312C49.75 106.666 53.3313 103.084 53.3313 98.6656V85.3312H63.9969C68.4156 85.3312 71.9969 81.75 71.9969 77.3313V50.6656C71.9969 49.1937 70.8031 48 69.3313 48C67.8594 48 66.6625 49.1937 66.6625 50.6656V77.3313C66.6625 78.8031 65.4688 80 63.9969 80H53.3313V66.6656C53.3313 62.2469 49.75 58.6656 45.3312 58.6656H8C3.58125 58.6656 0 62.2469 0 66.6656V98.6656C0 103.084 3.58125 106.666 8 106.666ZM5.33437 66.6656C5.33437 65.1938 6.52813 64 8.00313 64H45.3344C46.8063 64 48.0031 65.1938 48.0031 66.6656V98.6656C48.0031 100.138 46.8094 101.331 45.3344 101.331H8C6.52813 101.331 5.33125 100.138 5.33125 98.6656V66.6656H5.33437Z" fill="#3F7BA3"/>
<path d="M152 58.6656H114.666C110.247 58.6656 106.666 62.2469 106.666 66.6656V80H96.0002C94.5284 80 93.3346 78.8063 93.3346 77.3313V50.6656C93.3346 49.1937 92.1409 48 90.6659 48C89.194 48 88.0002 49.1937 88.0002 50.6656V77.3313C88.0002 81.75 91.5815 85.3312 96.0002 85.3312H106.666V98.6656C106.666 103.084 110.247 106.666 114.666 106.666H152C156.419 106.666 160 103.084 160 98.6656V66.6656C160 62.25 156.419 58.6656 152 58.6656ZM154.666 98.6656C154.666 100.138 153.472 101.331 151.997 101.331H114.666C113.194 101.331 111.997 100.138 111.997 98.6656V66.6656C111.997 65.1938 113.191 64 114.666 64H152C153.472 64 154.669 65.1938 154.669 66.6656V98.6656H154.666Z" fill="#3F7BA3"/>
<path d="M79.9999 48C78.5281 48 77.3312 49.1937 77.3312 50.6656V112H61.3312C56.9124 112 53.3312 115.581 53.3312 120V152C53.3312 156.419 56.9124 160 61.3312 160H98.6656C103.084 160 106.666 156.419 106.666 152V120C106.666 115.581 103.084 112 98.6656 112H82.6656V50.6656C82.6687 49.1937 81.4718 48 79.9999 48ZM101.334 120V152C101.334 153.472 100.141 154.669 98.6687 154.669H61.3343C59.8624 154.669 58.6687 153.475 58.6687 152V120C58.6687 118.528 59.8624 117.331 61.3343 117.331H98.6687C100.141 117.331 101.334 118.528 101.334 120Z" fill="#3F7BA3"/>
<path d="M13.3345 112C11.8626 112 10.6658 113.194 10.6658 114.669V120C10.6658 124.419 14.247 128 18.6658 128H45.3314C46.8033 128 48.0001 126.806 48.0001 125.331C48.0001 123.859 46.8064 122.666 45.3314 122.666H18.6658C17.1939 122.666 15.997 121.472 15.997 119.997V114.663C16.0001 113.194 14.8064 112 13.3345 112Z" fill="#3F7BA3"/>
<path d="M136 128C140.419 128 144 124.419 144 120V114.666C144 113.194 142.806 111.997 141.331 111.997C139.86 111.997 138.666 113.191 138.666 114.666V120C138.666 121.472 137.472 122.669 135.997 122.669H114.663C113.191 122.669 111.994 123.862 111.994 125.334C111.994 126.806 113.188 128.003 114.663 128.003H136V128Z" fill="#3F7BA3"/>
<path d="M141.335 53.3344C142.806 53.3344 144.003 52.1406 144.003 50.6656V8C144.003 3.58125 140.422 0 136.003 0H18.6658C14.247 0 10.6658 3.58125 10.6658 8V50.6656C10.6658 52.1375 11.8595 53.3344 13.3345 53.3344C14.8064 53.3344 16.0001 52.1406 16.0001 50.6656V26.6656H138.669V50.6656C138.666 52.1406 139.86 53.3344 141.335 53.3344ZM16.0001 21.3344V8C16.0001 6.52813 17.1939 5.33125 18.6689 5.33125H136C137.472 5.33125 138.669 6.525 138.669 8V21.3313H16.0001V21.3344Z" fill="#3F7BA3"/>
<path d="M26.6658 13.3345C26.6658 14.8063 25.472 16.0001 24.0002 16.0001C22.5283 16.0001 21.3314 14.8063 21.3314 13.3345C21.3314 11.8626 22.5252 10.6657 24.0002 10.6657C25.472 10.6657 26.6658 11.8595 26.6658 13.3345Z" fill="#3F7BA3"/>
<path d="M37.3314 13.3345C37.3314 14.8063 36.1377 16.0001 34.6658 16.0001C33.1939 16.0001 31.9971 14.8063 31.9971 13.3345C31.9971 11.8626 33.1908 10.6657 34.6658 10.6657C36.1377 10.6657 37.3314 11.8595 37.3314 13.3345Z" fill="#3F7BA3"/>
<path d="M47.9999 13.3345C47.9999 14.8063 46.8062 16.0001 45.3312 16.0001C43.8593 16.0001 42.6655 14.8063 42.6655 13.3345C42.6655 11.8626 43.8593 10.6657 45.3312 10.6657C46.8062 10.6657 47.9999 11.8595 47.9999 13.3345Z" fill="#3F7BA3"/>
<path d="M122.669 53.3344C124.14 53.3344 125.334 52.1407 125.334 50.6657V40.0001C125.334 35.5813 121.753 32.0001 117.334 32.0001H42.6686C38.2498 32.0001 34.6686 35.5813 34.6686 40.0001V50.6657C34.6686 52.1376 35.8623 53.3344 37.3342 53.3344C38.8061 53.3344 40.003 52.1407 40.003 50.6657V40.0001C40.003 38.5282 41.1967 37.3313 42.6717 37.3313H117.337C118.809 37.3313 120.006 38.5251 120.006 40.0001V50.6657C120 52.1407 121.194 53.3344 122.669 53.3344Z" fill="#3F7BA3"/>
<path d="M77.8843 123.713L73.6843 129.191L66.0874 130.881C65.1468 131.094 64.3937 131.794 64.1155 132.719C63.8405 133.644 64.0843 134.644 64.753 135.338L69.5093 140.253L69.0999 146.494C69.0405 147.378 69.4249 148.231 70.1249 148.775C70.8218 149.319 71.7468 149.478 72.5874 149.206L79.9968 146.788L87.4093 149.206C88.253 149.481 89.1749 149.319 89.8749 148.775C90.5718 148.231 90.9562 147.375 90.8968 146.494L90.4874 140.253L95.2437 135.338C95.9124 134.644 96.1593 133.644 95.8812 132.719C95.603 131.794 94.8499 131.094 93.9093 130.881L86.3124 129.191L82.1124 123.713C81.5874 123.084 80.8124 122.722 79.9968 122.722C79.1812 122.722 78.4093 123.084 77.8843 123.713ZM82.6687 133.203C83.0499 133.7 83.5937 134.047 84.2062 134.184L88.0968 135.05L85.8312 137.388C85.3062 137.928 85.0343 138.669 85.0843 139.419L85.3343 142.906L80.8405 141.444C80.303 141.269 79.7249 141.269 79.1874 141.444L74.6937 142.906L74.9249 139.419C74.9749 138.666 74.703 137.928 74.178 137.388L71.9124 135.05L75.803 134.184C76.4124 134.047 76.953 133.7 77.3312 133.203L79.9999 129.716L82.6687 133.203Z" fill="#3F7BA3"/>
<path d="M139.947 81.825C142.216 78.4937 141.65 73.9906 138.625 71.325C135.6 68.6594 131.066 68.6562 128.041 71.325C125.016 73.9937 124.45 78.4937 126.719 81.825C122.578 84.1812 120.016 88.5687 120 93.3312C120 94.8031 121.194 95.9968 122.669 95.9968H144.003C145.475 95.9968 146.669 94.8031 146.669 93.3312C146.65 88.5718 144.088 84.1812 139.947 81.825ZM130.666 77.3312C130.666 75.8593 131.859 74.6656 133.334 74.6656C134.806 74.6656 136 75.8593 136 77.3312C136 78.8031 134.806 80 133.334 80C131.859 80 130.666 78.8062 130.666 77.3312ZM125.791 90.6656C126.919 87.4687 129.944 85.3281 133.334 85.3281C136.725 85.3281 139.75 87.4656 140.878 90.6656H125.791Z" fill="#3F7BA3"/>
<path d="M13.3345 74.6657H40.0001C41.472 74.6657 42.6689 73.4719 42.6689 71.9969C42.6689 70.525 41.4751 69.3313 40.0001 69.3313H13.3345C11.8626 69.3313 10.6658 70.525 10.6658 71.9969C10.6658 73.4719 11.8595 74.6657 13.3345 74.6657Z" fill="#3F7BA3"/>
<path d="M13.3345 85.3344H40.0001C41.472 85.3344 42.6689 84.1406 42.6689 82.6688C42.6689 81.1969 41.4751 80 40.0001 80H13.3345C11.8626 80 10.6658 81.1938 10.6658 82.6688C10.6658 84.1406 11.8595 85.3344 13.3345 85.3344Z" fill="#3F7BA3"/>
<path d="M13.3345 96H40.0001C41.472 96 42.6689 94.8063 42.6689 93.3344C42.6689 91.8625 41.4751 90.6656 40.0001 90.6656H13.3345C11.8626 90.6656 10.6658 91.8594 10.6658 93.3344C10.6658 94.8063 11.8595 96 13.3345 96Z" fill="#3F7BA3"/>
</g>
<defs>
<clipPath id="clip0">
<rect width="160" height="160" fill="white"/>
</clipPath>
</defs>
</svg>

<svg width="160" height="160" fill="none" xmlns="http://www.w3.org/2000/svg"><g clip-path="url(#clip0)" fill="#3F7BA3"><path d="M8 106.666h37.331a8 8 0 008-8V85.33h10.666a8 8 0 008-8V50.666a2.666 2.666 0 00-5.335 0V77.33A2.669 2.669 0 0163.997 80H53.33V66.666a8 8 0 00-8-8H8a8 8 0 00-8 8v32a8 8 0 008 8zm-2.666-40A2.667 2.667 0 018.004 64h37.33a2.669 2.669 0 012.67 2.666v32a2.666 2.666 0 01-2.67 2.665H8a2.668 2.668 0 01-2.669-2.665v-32h.003zm146.666-8h-37.334a8 8 0 00-8 8V80H96a2.667 2.667 0 01-2.665-2.669V50.666a2.667 2.667 0 00-5.335 0V77.33a8 8 0 008 8h10.666v13.335a8 8 0 008 8H152a8 8 0 008-8v-32c0-4.416-3.581-8-8-8zm2.666 40a2.666 2.666 0 01-2.669 2.665h-37.331a2.668 2.668 0 01-2.669-2.665v-32A2.667 2.667 0 01114.666 64H152a2.669 2.669 0 012.669 2.666v32h-.003z"/><path d="M80 48a2.669 2.669 0 00-2.669 2.666V112h-16a8 8 0 00-8 8v32a8 8 0 008 8h37.335a8 8 0 008-8v-32a8 8 0 00-8-8h-16V50.666A2.664 2.664 0 0080 48zm21.334 72v32a2.668 2.668 0 01-2.665 2.669H61.334A2.667 2.667 0 0158.67 152v-32a2.669 2.669 0 012.665-2.669H98.67a2.668 2.668 0 012.665 2.669zm-87.999-8a2.67 2.67 0 00-2.67 2.669V120a8 8 0 008 8h26.666a2.666 2.666 0 100-5.334H18.666a2.67 2.67 0 01-2.669-2.669v-5.334A2.661 2.661 0 0013.335 112zM136 128a8 8 0 008-8v-5.334a2.667 2.667 0 10-5.334 0V120a2.67 2.67 0 01-2.669 2.669h-21.334a2.668 2.668 0 100 5.334H136V128z"/><path d="M141.335 53.334a2.67 2.67 0 002.668-2.668V8a8 8 0 00-8-8H18.666a8 8 0 00-8 8v42.666a2.667 2.667 0 105.334 0v-24h122.67v24a2.663 2.663 0 002.666 2.668zM16 21.334V8a2.67 2.67 0 012.669-2.669H136A2.67 2.67 0 01138.669 8v13.331H16v.003z"/><path d="M26.666 13.335a2.666 2.666 0 01-5.335 0 2.667 2.667 0 115.334 0zm10.665 0a2.666 2.666 0 01-5.334 0 2.667 2.667 0 115.334 0zm10.669 0a2.667 2.667 0 11-5.333-.003 2.667 2.667 0 015.333.002zm74.669 39.999a2.667 2.667 0 002.665-2.668V40a8 8 0 00-8-8H42.669a8 8 0 00-8 8v10.666a2.669 2.669 0 002.665 2.668 2.67 2.67 0 002.669-2.668V40a2.67 2.67 0 012.669-2.669h74.665a2.67 2.67 0 012.669 2.67v10.665a2.659 2.659 0 002.663 2.668zm-44.785 70.379l-4.2 5.478-7.597 1.69a2.673 2.673 0 00-1.972 1.838 2.675 2.675 0 00.638 2.619l4.756 4.915-.41 6.241a2.67 2.67 0 003.487 2.712l7.41-2.418 7.413 2.418a2.667 2.667 0 003.488-2.712l-.41-6.241 4.757-4.915a2.668 2.668 0 00-1.335-4.457l-7.597-1.69-4.2-5.478a2.75 2.75 0 00-4.228 0zm4.785 9.49c.38.497.925.844 1.537.981l3.89.866-2.265 2.338a2.665 2.665 0 00-.747 2.031l.25 3.487-4.493-1.462a2.668 2.668 0 00-1.654 0l-4.493 1.462.23-3.487a2.66 2.66 0 00-.746-2.031l-2.266-2.338 3.891-.866a2.65 2.65 0 001.528-.981L80 129.716l2.669 3.487zm57.278-51.378a8 8 0 10-13.228 0A13.288 13.288 0 00120 93.331a2.667 2.667 0 002.669 2.666h21.334a2.666 2.666 0 002.666-2.666 13.3 13.3 0 00-6.722-11.506zm-9.281-4.494A2.666 2.666 0 11133.334 80a2.667 2.667 0 01-2.668-2.669zm-4.875 13.335a7.998 7.998 0 0115.087 0h-15.087zm-112.456-16H40a2.667 2.667 0 100-5.334H13.334a2.667 2.667 0 100 5.334zm0 10.668H40a2.669 2.669 0 002.669-2.665A2.67 2.67 0 0040 80H13.334a2.667 2.667 0 100 5.334zm0 10.666H40a2.669 2.669 0 002.669-2.666A2.67 2.67 0 0040 90.666H13.334a2.667 2.667 0 100 5.334z"/></g><defs><clipPath id="clip0"><path fill="#fff" d="M0 0h160v160H0z"/></clipPath></defs></svg>
